icons/cloudy-snow.svg

<svg width="24" height="24" viewBox="0 0 24 24" fill="none" xmlns="http://www.w3.org/2000/svg">
<path d="M7 18H7.01" stroke="#1E293B" stroke-width="2" stroke-linecap="round" stroke-linejoin="round"/>
<path d="M11 20H11.01" stroke="#1E293B" stroke-width="2" stroke-linecap="round" stroke-linejoin="round"/>
<path d="M15 18H15.01" stroke="#1E293B" stroke-width="2" stroke-linecap="round" stroke-linejoin="round"/>
<path d="M15 22H15.01" stroke="#1E293B" stroke-width="2" stroke-linecap="round" stroke-linejoin="round"/>
<path d="M6 22H6.01" stroke="#1E293B" stroke-width="2" stroke-linecap="round" stroke-linejoin="round"/>
<path d="M8.24755 8.5C8.24755 7.21442 8.6215 5.95772 9.32213 4.8888C10.0228 3.81988 11.0186 2.98676 12.1837 2.49479C13.3488 2.00282 14.6308 1.87409 15.8677 2.1249C17.1046 2.3757 18.2407 2.99477 19.1324 3.90381C20.0242 4.81285 20.6315 5.97104 20.8775 7.23191C21.1235 8.49279 20.9972 9.79972 20.5146 10.9874C20.032 12.1752 19.2148 13.1903 18.1662 13.9046C17.1176 14.6188 15.8849 15 14.6238 15H7.12233C6.52328 14.9995 5.93153 14.866 5.3882 14.6088C4.84487 14.3516 4.363 13.9769 3.97607 13.5107C3.58915 13.0445 3.30645 12.498 3.14764 11.9092C2.98882 11.3203 2.95769 10.7033 3.05641 10.101C3.15513 9.49868 3.38133 8.92549 3.7193 8.42128C4.05726 7.91707 4.49888 7.49394 5.01346 7.18128C5.52804 6.86863 6.10324 6.67396 6.69907 6.6108C7.29491 6.54763 7.89709 6.6175 8.46376 6.81554" stroke="#1E293B" stroke-width="2" stroke-linecap="round" stroke-linejoin="round"/>
</svg>

<svg
  width="24"
  height="24"
  viewBox="0 0 24 24"
  xmlns="http://www.w3.org/2000/svg"
  fill="none"
  stroke="currentColor"
  stroke-width="2"
  stroke-linecap="round"
  stroke-linejoin="round"
>
  <path d="M7 18h.01" />
  <path d="M11 20h.01" />
  <path d="M15 18h.01" />
  <path d="M15 22h.01" />
  <path d="M6 22h.01" />
  <path d="M8.248 8.5a6.59 6.59 0 0 1 1.074-3.611 6.405 6.405 0 0 1 2.862-2.394 6.263 6.263 0 0 1 3.684-.37 6.34 6.34 0 0 1 3.264 1.779 6.54 6.54 0 0 1 1.745 3.328 6.617 6.617 0 0 1-.362 3.755 6.475 6.475 0 0 1-2.349 2.918A6.29 6.29 0 0 1 14.624 15H7.122c-.599 0-1.19-.134-1.734-.391a4.136 4.136 0 0 1-1.412-1.098 4.234 4.234 0 0 1-.828-1.602 4.285 4.285 0 0 1 .571-3.488 4.16 4.16 0 0 1 1.294-1.24 4.052 4.052 0 0 1 3.45-.366" />
</svg>
